X:23
T:Prime of Life. WCF.023
M:2/4
L:1/16
Q:1/4=100
S:Wm Clarke MS, Feltwell, 1858
O:England
A:Norfolk
N:Has an extra bar at the end
Z:Transcription Lyn Law 04/2006
K:G
“Var:1”
|:dedc B2B2|gddB G2B2|AGAB cBce|dedB G4:|!
|:f2g2f2g2|f2g2a2b2|c’2b2a2g2|fdef g2g2|!
f2g2f2g2|f2g2a2b2|c’bab a2b2a2g2|fdef g4:|!
“Var:2”
|:dedc B2B2|gddB G2B2|AGAB cBce|dedB G4:|!
|:f2g2f2g2|f2g2a2b2|c’2b2a2g2|fdef g2g2|!
f2g2f2g2|f2g2a2b2|c’2b2a2b2|abag fdef g4:|!
“Var:3”
|:dedc B2B2|gddB G2B2|AGAB cBce|dedB G4:|!
|:f2g2f2g2|f2g2a2b2|c’2b2a2g2|fdef g2g2|!
f2g2f2g2|f2g2a2b2|c’2b2a2b2|fdef g4:|]

